images/newlogo.svg

<?xml version="1.0" encoding="UTF-8" standalone="no"?>
<!-- Created with Inkscape (http://www.inkscape.org/) -->

<svg
   version="1.1"
   id="svg296"
   width="254.862"
   height="77.63855"
   viewBox="0 0 254.862 77.63855"
   xmlns="http://www.w3.org/2000/svg"
   xmlns:svg="http://www.w3.org/2000/svg">
  <defs
     id="defs300" />
  <g
     id="g302"
     transform="translate(-11.884089,-4.1136732)">
    <path
       style="fill:#ed670f"
       d="M 104.5,17.934755 C 97.602896,16.881836 88.115694,14.146111 86.173785,12.650217 85.242696,11.932979 84.609537,12.013749 84.04863,12.921314 82.99494,14.626222 79.304199,13.436917 77.982024,10.966411 77.167017,9.4435576 77.416941,8.7729157 79.246101,7.5744039 83.623515,4.7062124 91.914049,3.7281848 107.45829,4.2462348 123.262,4.7729324 136.60245,7.2737414 144.25,11.143232 c 4.73743,2.397035 4.98917,5.229141 0.60078,6.758943 -4.01693,1.400307 -5.14802,1.387788 -4.26117,-0.04716 0.50533,-0.81764 -0.12107,-0.933734 -2.19099,-0.406071 -4.58429,1.168629 -27.29395,1.494091 -33.89862,0.485815 z m 31.25,-1.565041 c 4.69593,-1.258461 1.59349,-3.698281 -7.68174,-6.041071 C 121.63594,8.7039304 96.980751,7.4058271 91.627822,8.4100427 89.63252,8.7843636 88,9.5086792 88,10.019633 c 0,1.612147 5.444094,3.828642 13.10371,5.335011 7.44119,1.463413 30.45708,2.137734 34.64629,1.01507 z"
       id="path1832" />
    <path
       id="path1826"
       style="fill:#020202"
       d="m 74.667969,9.2714844 c -0.939447,-0.1068698 -2.409741,0.1269371 -4.806641,0.5839844 -0.04136,0.011626 -0.08336,0.02264 -0.125,0.033203 -0.109471,0.026764 -0.221709,0.0456 -0.332031,0.068359 -0.125122,0.025883 -0.250569,0.04951 -0.376953,0.06836 -0.054,0.0055 -0.106724,0.01352 -0.160156,0.02148 -1.222273,0.245552 -2.360665,0.496032 -3.556641,0.742187 -0.01371,0.0036 -0.02717,0.0064 -0.04102,0.0098 -0.03537,0.0067 -0.06348,0.01103 -0.0957,0.01953 -0.0074,0.0017 -0.01604,0.0042 -0.02344,0.0059 -0.02383,0.0056 -0.04667,0.0094 -0.06836,0.01172 h -0.002 c -24.390866,5.038353 -37.492373,10.603004 -47.1875,20.03125 -6.34973,6.174892 -7.410374,9.522114 -4.384766,13.841796 C 15.672298,47.799216 24.23494,50.679465 33.5,51.435547 62.214508,53.778852 67.88165,55.77715 64.830078,62.474609 62.613222,67.340126 49.75236,73.504038 31.5,78.449219 c -5.499854,1.490079 -10.450029,2.901679 -11,3.138672 -1.12909,0.486504 2.572215,-0.07962 13.5,-2.06836 C 65.153674,73.849989 84.083393,59.929096 74.148438,49.994141 70.69895,46.544653 64.182753,44.643232 50,42.947266 34.848723,41.13545 31.224532,38.775468 36.099609,33.900391 41.047095,28.952905 55.719103,24.386838 78.232422,20.787109 91.365045,18.687296 91.9304,18.504566 88.712891,17.390625 83.165462,15.470065 78.605126,12.917371 76.916016,10.787109 76.183705,9.8635808 75.675986,9.3861548 74.667969,9.2714844 Z M 201.75781,31.792969 c -3.85008,0 -9.16168,0.06953 -15.00586,0.207031 -25.55576,0.601259 -25.54445,0.597546 -31.12695,11.166016 -2.13096,4.033996 -5.85541,11.003858 -8.27734,15.488281 l -4.4043,8.152344 3.75586,3.097656 L 150.45508,73 h 13.40625 c 20.27499,0 23.10607,-1.343422 30.03125,-14.25 l 4.1582,-7.75 h -11.36523 c -11.20831,0 -11.38088,0.03496 -12.52539,2.546875 C 172.63568,56.892642 172.66208,57 175,57 c 2.42131,0 2.42396,0.04311 0.31445,4.466797 C 173.66749,64.920398 173.49642,65 167.74805,65 c -7.07134,0 -7.13001,0.699999 1.20898,-14.677734 L 174.82617,39.5 189.43164,39 l 14.60547,-0.5 1.97461,-3 c 1.08611,-1.649942 1.97842,-3.225 1.98242,-3.5 0.002,-0.1375 -2.38596,-0.207031 -6.23633,-0.207031 z M 266.74609,32 246.62305,32.02539 C 219.28494,32.06102 221.07023,31.126866 210.3457,51.033202 L 202.01367,66.5 l 3.47852,3.25 3.47851,3.25 h 18.33008 18.32813 l 1.68554,-3.533203 C 248.24131,67.523195 249,65.723137 249,65.466797 249,65.210457 242.69971,65 235,65 c -8.0578,0 -14,-0.399137 -14,-0.939453 0,-0.516333 2.86697,-6.254036 6.37109,-12.75 L 233.74414,39.5 248.62109,39.197266 263.5,38.892578 265.12305,35.447266 Z M 139.5,32.027344 120.65234,32.263672 101.80273,32.5 91.433594,52 C 85.730326,62.724681 81.048643,71.8375 81.03125,72.25 c -0.01739,0.4125 8.856569,0.740595 19.71875,0.728516 16.93332,-0.01883 20.32035,-0.281741 23.75,-1.841797 5.07843,-2.310198 4.81647,-1.956594 14.03906,-19.035157 l 7.77539,-14.396484 -3.4082,-2.83789 z m -15.11523,7.11914 c 2.16646,0.01621 3.60925,0.230916 3.46484,0.566407 C 127.65705,40.160184 124.575,46.028219 121,52.753906 v 0.002 l -6.5,12.228516 -6.25,0.0078 c -3.4375,0.0045 -6.25,-0.163075 -6.25,-0.373047 0,-0.210001 3.10852,-5.947704 6.9082,-12.75 L 115.81836,39.5 l 6.19141,-0.300781 c 0.85099,-0.04129 1.65275,-0.05814 2.375,-0.05273 z" />
    <path
       style="fill:#ed670f;fill-opacity:1"
       d="m 138.17309,17.384445 c 0,0 -15.15201,3.324894 -31.254,0.664979 -16.101987,-2.659915 14.24954,-0.569982 14.24954,-0.569982 z"
       id="path3468" />
    <path
       style="fill:#ed670f;fill-opacity:1"
       d="m 128.10341,18.571908 c 0,0 5.79482,0.095 9.92719,-1.234961 4.13237,-1.329958 -9.92719,1.234961 -9.92719,1.234961 z"
       id="path3470" />
  </g>
</svg>

<svg width="254.862" height="77.639" xmlns="http://www.w3.org/2000/svg"><path style="fill:#ed670f" d="M104.5 17.935c-6.897-1.053-16.384-3.789-18.326-5.285-.931-.717-1.564-.636-2.125.271-1.054 1.705-4.745.516-6.067-1.955-.815-1.522-.565-2.193 1.264-3.392 4.378-2.868 12.668-3.846 28.212-3.328 15.804.527 29.144 3.028 36.792 6.897 4.737 2.397 4.99 5.23.6 6.76-4.016 1.4-5.147 1.387-4.26-.048.505-.818-.121-.934-2.191-.406-4.585 1.169-27.294 1.494-33.899.486zm31.25-1.565c4.696-1.259 1.593-3.699-7.682-6.041-6.432-1.625-31.087-2.923-36.44-1.919C89.633 8.784 88 9.509 88 10.02c0 1.612 5.444 3.828 13.104 5.335 7.44 1.463 30.457 2.137 34.646 1.015z" transform="translate(-11.884 -4.114)"/><path style="fill:#020202" d="M74.668 9.271c-.94-.106-2.41.127-4.807.584a5.073 5.073 0 0 1-.125.034c-.11.026-.221.045-.332.068-.125.026-.25.05-.377.068-.054.006-.106.014-.16.022-1.222.245-2.36.496-3.556.742l-.041.01c-.036.007-.064.01-.096.02l-.024.005a.559.559 0 0 1-.068.012h-.002c-24.39 5.038-37.492 10.603-47.187 20.031-6.35 6.175-7.41 9.522-4.385 13.842 2.164 3.09 10.727 5.97 19.992 6.727 28.715 2.343 34.382 4.341 31.33 11.039-2.217 4.865-15.078 11.029-33.33 15.974-5.5 1.49-10.45 2.902-11 3.139-1.13.486 2.572-.08 13.5-2.068 31.154-5.67 50.083-19.59 40.148-29.526-3.449-3.45-9.965-5.35-24.148-7.047-15.151-1.812-18.775-4.172-13.9-9.047 4.947-4.947 19.62-9.513 42.132-13.113 13.133-2.1 13.698-2.282 10.48-3.396-5.547-1.92-10.107-4.474-11.796-6.604-.732-.923-1.24-1.4-2.248-1.516Zm127.09 22.522c-3.85 0-9.162.07-15.006.207-25.556.601-25.545.598-31.127 11.166a2318.398 2318.398 0 0 1-8.277 15.488l-4.405 8.153 3.756 3.097L150.455 73h13.406c20.275 0 23.106-1.343 30.032-14.25L198.05 51h-11.365c-11.209 0-11.381.035-12.526 2.547-1.524 3.346-1.498 3.453.84 3.453 2.421 0 2.424.043.314 4.467-1.647 3.453-1.818 3.533-7.566 3.533-7.071 0-7.13.7 1.209-14.678l5.87-10.822 14.605-.5 14.605-.5 1.975-3c1.086-1.65 1.978-3.225 1.982-3.5.002-.138-2.386-.207-6.236-.207zm64.988.207-20.123.025c-27.338.036-25.553-.898-36.277 19.008L202.014 66.5l3.478 3.25 3.479 3.25h36.658l1.685-3.533c.927-1.944 1.686-3.744 1.686-4 0-.257-6.3-.467-14-.467-8.058 0-14-.4-14-.94 0-.516 2.867-6.253 6.371-12.75l6.373-11.81 14.877-.303 14.879-.304 1.623-3.446Zm-127.246.027-18.848.237-18.85.236L91.435 52C85.73 62.725 81.049 71.838 81.03 72.25c-.017.412 8.857.74 19.719.729 16.933-.02 20.32-.282 23.75-1.842 5.078-2.31 4.816-1.957 14.04-19.035l7.774-14.397-3.408-2.838zm-15.115 7.12c2.166.016 3.609.23 3.465.566-.193.447-3.275 6.315-6.85 13.04v.003l-6.5 12.228-6.25.008c-3.438.005-6.25-.163-6.25-.373s3.109-5.948 6.908-12.75l6.91-12.369 6.192-.3a42.854 42.854 0 0 1 2.375-.054z" transform="translate(-11.884 -4.114)"/><path style="fill:#ed670f;fill-opacity:1" d="M138.173 17.384s-15.152 3.325-31.254.665c-16.102-2.66 14.25-.57 14.25-.57z" transform="translate(-11.884 -4.114)"/><path style="fill:#ed670f;fill-opacity:1" d="M128.103 18.572s5.795.095 9.928-1.235c4.132-1.33-9.928 1.235-9.928 1.235z" transform="translate(-11.884 -4.114)"/></svg>
